dist/img/svg/ic_step4.svg

<svg width="58" height="55" viewBox="0 0 58 55" fill="none" xmlns="http://www.w3.org/2000/svg">
<path d="M56.0001 28.2399C56.0104 28.1602 56.0104 28.0796 56.0001 27.9999C55.9964 23.5228 54.8794 19.1169 52.7498 15.1788C50.6201 11.2407 47.5446 7.89399 43.8001 5.4399C43.6519 5.23241 43.4302 5.08932 43.1801 5.0399C38.9253 2.39363 34.0163 0.987807 29.0058 0.98074C23.9952 0.973673 19.0822 2.36564 14.8201 4.9999C14.57 5.04932 14.3482 5.19241 14.2001 5.3999C10.4499 7.8577 7.3708 11.2108 5.24085 15.1564C3.1109 19.1021 1.99712 23.5161 2.00006 27.9999C1.9897 28.0796 1.9897 28.1602 2.00006 28.2399C1.40934 28.4889 0.904817 28.906 0.549229 29.4393C0.193642 29.9727 0.00267137 30.5989 6.10733e-05 31.2399V33.6999C-0.00257252 34.1315 0.0799921 34.5593 0.243023 34.9589C0.406053 35.3585 0.646345 35.722 0.950124 36.0286C1.2539 36.3352 1.6152 36.5788 2.0133 36.7454C2.4114 36.9121 2.83848 36.9986 3.27006 36.9999H54.7301C55.5965 36.9973 56.4267 36.6519 57.0394 36.0392C57.6521 35.4265 57.9974 34.5963 58.0001 33.7299V31.2699C58.0034 30.6238 57.8151 29.9911 57.4592 29.4518C57.1032 28.9126 56.5955 28.4908 56.0001 28.2399ZM54.0001 27.9999H43.2601C43.2795 27.8874 43.2795 27.7724 43.2601 27.6599L38.9101 15.6599C38.8402 15.4666 38.7125 15.2996 38.5443 15.1815C38.3761 15.0634 38.1756 15 37.9701 14.9999H33.0001V3.3199C36.187 3.8383 39.2432 4.96913 42.0001 6.6499V13.9999C42.0001 14.2651 42.1054 14.5195 42.293 14.707C42.4805 14.8945 42.7348 14.9999 43.0001 14.9999C43.2653 14.9999 43.5196 14.8945 43.7072 14.707C43.8947 14.5195 44.0001 14.2651 44.0001 13.9999V7.9999C47.105 10.3286 49.625 13.3482 51.3607 16.8196C53.0964 20.2909 54.0001 24.1188 54.0001 27.9999ZM31.0001 3.0899V15.9999C31.0001 16.2651 31.1054 16.5195 31.293 16.707C31.4805 16.8945 31.7348 16.9999 32.0001 16.9999H37.2201L41.2201 27.9999H16.7901L20.7901 16.9999H26.0001C26.2653 16.9999 26.5196 16.8945 26.7072 16.707C26.8947 16.5195 27.0001 16.2651 27.0001 15.9999V3.0899C27.6601 2.9999 28.3301 2.9999 29.0001 2.9999C29.6701 2.9999 30.3401 2.9999 31.0001 3.0899ZM14.0001 7.9999V13.9999C14.0001 14.2651 14.1054 14.5195 14.293 14.707C14.4805 14.8945 14.7348 14.9999 15.0001 14.9999C15.2653 14.9999 15.5196 14.8945 15.7072 14.707C15.8947 14.5195 16.0001 14.2651 16.0001 13.9999V6.6499C18.7569 4.96913 21.8132 3.8383 25.0001 3.3199V14.9999H20.0801C19.8745 15 19.6741 15.0634 19.5059 15.1815C19.3377 15.2996 19.2099 15.4666 19.1401 15.6599L14.7901 27.6599C14.7539 27.7695 14.737 27.8845 14.7401 27.9999H4.00006C4.00006 24.1188 4.90369 20.2909 6.63938 16.8196C8.37507 13.3482 10.8952 10.3286 14.0001 7.9999ZM56.0001 33.7299C56.0001 34.0667 55.8663 34.3898 55.6281 34.6279C55.3899 34.8661 55.0669 34.9999 54.7301 34.9999H3.27006C2.93324 34.9999 2.61021 34.8661 2.37204 34.6279C2.13386 34.3898 2.00006 34.0667 2.00006 33.7299V31.2699C2.00006 30.9331 2.13386 30.61 2.37204 30.3719C2.61021 30.1337 2.93324 29.9999 3.27006 29.9999H54.7301C55.0669 29.9999 55.3899 30.1337 55.6281 30.3719C55.8663 30.61 56.0001 30.9331 56.0001 31.2699V33.7299Z" fill="black"/>
<path d="M55 41C54.7348 41 54.4804 41.1054 54.2929 41.2929C54.1054 41.4804 54 41.7348 54 42V40C54 39.7348 53.8946 39.4804 53.7071 39.2929C53.5196 39.1054 53.2652 39 53 39H5C4.73478 39 4.48043 39.1054 4.29289 39.2929C4.10536 39.4804 4 39.7348 4 40V42C4 41.7348 3.89464 41.4804 3.70711 41.2929C3.51957 41.1054 3.26522 41 3 41C2.73478 41 2.48043 41.1054 2.29289 41.2929C2.10536 41.4804 2 41.7348 2 42V49C2 49.2652 2.10536 49.5196 2.29289 49.7071C2.48043 49.8946 2.73478 50 3 50C3.26522 50 3.51957 49.8946 3.70711 49.7071C3.89464 49.5196 4 49.2652 4 49V51C3.99727 51.2412 4.0818 51.4752 4.238 51.659C4.3942 51.8427 4.61155 51.9638 4.85 52L24.23 55H24.38C24.5344 55.0012 24.687 54.9666 24.8258 54.8989C24.9646 54.8312 25.0858 54.7324 25.18 54.61L29 49.61L32.82 54.61C32.9142 54.7324 33.0354 54.8312 33.1742 54.8989C33.313 54.9666 33.4656 55.0012 33.62 55H33.77L53.15 52C53.3885 51.9638 53.6058 51.8427 53.762 51.659C53.9182 51.4752 54.0027 51.2412 54 51V49C54 49.2652 54.1054 49.5196 54.2929 49.7071C54.4804 49.8946 54.7348 50 55 50C55.2652 50 55.5196 49.8946 55.7071 49.7071C55.8946 49.5196 56 49.2652 56 49V42C56 41.7348 55.8946 41.4804 55.7071 41.2929C55.5196 41.1054 55.2652 41 55 41ZM24 52.92L6 50.14V41H28V47.66L24 52.92ZM52 50.14L34 52.92L30 47.66V41H52V50.14Z" fill="black"/>
<path d="M36.8592 50C37.0009 49.9994 37.1403 49.9674 37.265 49.907L48.4901 44.482C48.5981 44.4385 48.695 44.3755 48.7748 44.297C48.8545 44.2185 48.9154 44.1261 48.9536 44.0255C48.9919 43.925 49.0067 43.8184 48.9972 43.7125C48.9876 43.6066 48.9539 43.5036 48.8982 43.4099C48.8424 43.3162 48.7658 43.2337 48.673 43.1677C48.5802 43.1017 48.4734 43.0535 48.359 43.0262C48.2446 42.9988 48.1251 42.9928 48.0081 43.0086C47.891 43.0244 47.7788 43.0617 47.6785 43.118L36.4534 48.543C36.2845 48.6248 36.1509 48.7547 36.0735 48.9122C35.996 49.0698 35.9793 49.2459 36.0258 49.413C36.0723 49.58 36.1795 49.7284 36.3304 49.8347C36.4813 49.941 36.6674 49.9991 36.8592 50Z" fill="#008FD6"/>
<path d="M21.8958 43.3923C21.8427 43.3055 21.7707 43.2288 21.6841 43.1667C21.5975 43.1046 21.4979 43.0583 21.391 43.0305C21.2842 43.0026 21.1722 42.9937 21.0614 43.0044C20.9507 43.015 20.8434 43.0449 20.7457 43.0924L11.444 47.5906C11.278 47.67 11.1468 47.7963 11.0711 47.9494C10.9954 48.1026 10.9796 48.2738 11.0263 48.4358C11.0729 48.5978 11.1793 48.7413 11.3286 48.8435C11.4778 48.9458 11.6613 49.0008 11.8499 49C11.9915 49.0006 12.1311 48.9697 12.2558 48.91L21.5575 44.4119C21.6554 44.3648 21.7419 44.301 21.8119 44.2242C21.882 44.1474 21.9342 44.0591 21.9656 43.9644C21.9971 43.8697 22.0071 43.7703 21.9951 43.6722C21.9831 43.574 21.9493 43.4789 21.8958 43.3923Z" fill="#008FD6"/>
<path d="M37.7802 45.9999C37.8951 46.0022 38.0085 45.9721 38.1089 45.9127L42.5911 43.5338C42.6809 43.4855 42.7605 43.4184 42.8252 43.3365C42.8899 43.2547 42.9383 43.1599 42.9676 43.0577C42.9969 42.9555 43.0065 42.848 42.9957 42.7418C42.9849 42.6356 42.954 42.5328 42.9049 42.4396C42.8166 42.2514 42.6616 42.1082 42.4739 42.0413C42.2862 41.9743 42.0812 41.9893 41.9038 42.0828L37.4216 44.4616C37.2685 44.5402 37.1453 44.6719 37.0723 44.8349C36.9994 44.9979 36.9809 45.1824 37.0201 45.358C37.0593 45.5337 37.1537 45.6898 37.2879 45.8008C37.422 45.9117 37.5877 45.9707 37.7577 45.9682L37.7802 45.9999Z" fill="#008FD6"/>
<path d="M22.96 46.0717L19.3533 48.4966C19.2168 48.5873 19.1109 48.7259 19.0518 48.8909C18.9928 49.0559 18.9839 49.2381 19.0266 49.4093C19.0694 49.5806 19.1613 49.7312 19.2881 49.838C19.415 49.9448 19.5697 50.0017 19.7284 50C19.8576 49.9977 19.9841 49.9587 20.0963 49.8868L23.7029 47.462C23.8473 47.3443 23.9477 47.1707 23.9845 46.9749C24.0213 46.7791 23.992 46.575 23.9023 46.402C23.8125 46.229 23.6687 46.0995 23.4986 46.0385C23.3285 45.9775 23.1443 45.9893 22.9816 46.0717H22.96Z" fill="#008FD6"/>
</svg>

<svg width="58" height="55" viewBox="0 0 58 55" fill="none" xmlns="http://www.w3.org/2000/svg"><path d="M56 28.24c.01-.08.01-.16 0-.24A27 27 0 0043.8 5.44a1 1 0 00-.62-.4A26.91 26.91 0 0014.82 5a1 1 0 00-.62.4A27 27 0 002 28a.93.93 0 000 .24 3.27 3.27 0 00-2 3v2.46A3.28 3.28 0 003.27 37h51.46A3.28 3.28 0 0058 33.73v-2.46a3.27 3.27 0 00-2-3.03zM54 28H43.26a1 1 0 000-.34l-4.35-12a1 1 0 00-.94-.66H33V3.32a25 25 0 019 3.33V14a1 1 0 102 0V8a25 25 0 0110 20zM31 3.09V16a1 1 0 001 1h5.22l4 11H16.79l4-11H26a1 1 0 001-1V3.09C27.66 3 28.33 3 29 3c.67 0 1.34 0 2 .09zM14 8v6a1 1 0 102 0V6.65a25 25 0 019-3.33V15h-4.92a1 1 0 00-.94.66l-4.35 12a.998.998 0 00-.05.34H4A25 25 0 0114 8zm42 25.73A1.27 1.27 0 0154.73 35H3.27A1.27 1.27 0 012 33.73v-2.46A1.27 1.27 0 013.27 30h51.46A1.27 1.27 0 0156 31.27v2.46zM55 41a1 1 0 00-1 1v-2a1 1 0 00-1-1H5a1 1 0 00-1 1v2a1 1 0 10-2 0v7a1 1 0 102 0v2a1 1 0 00.85 1l19.38 3h.15a1 1 0 00.8-.39l3.82-5 3.82 5a1 1 0 00.8.39h.15l19.38-3a1 1 0 00.85-1v-2a1 1 0 002 0v-7a1 1 0 00-1-1zM24 52.92L6 50.14V41h22v6.66l-4 5.26zm28-2.78l-18 2.78-4-5.26V41h22v9.14z" fill="#000"/><path d="M36.86 50a.942.942 0 00.405-.093l11.225-5.425a.868.868 0 00.285-.185c.08-.078.14-.17.179-.271a.701.701 0 00-.056-.616.802.802 0 00-.225-.242.904.904 0 00-.314-.142.959.959 0 00-.68.092l-11.226 5.425a.814.814 0 00-.38.37.702.702 0 00-.047.5.773.773 0 00.304.422.932.932 0 00.53.165zm-14.964-6.608a.78.78 0 00-.212-.225.885.885 0 00-.293-.136.947.947 0 00-.645.061l-9.302 4.499a.793.793 0 00-.373.358.671.671 0 00-.045.487.749.749 0 00.303.407.908.908 0 00.52.157c.143 0 .282-.03.407-.09l9.302-4.498a.83.83 0 00.254-.188.724.724 0 00.154-.26.667.667 0 00-.07-.572zM37.78 46a.62.62 0 00.329-.087l4.482-2.38a.754.754 0 00.234-.197.84.84 0 00.08-.897.763.763 0 00-.431-.398.707.707 0 00-.57.042l-4.482 2.379a.772.772 0 00-.35.373.838.838 0 00-.052.523.8.8 0 00.268.443c.134.11.3.17.47.167l.022.032zm-14.82.072l-3.607 2.425a.79.79 0 00-.301.394.9.9 0 00-.025.518.818.818 0 00.261.429.671.671 0 00.808.049l3.607-2.425a.822.822 0 00.282-.487.893.893 0 00-.083-.573.744.744 0 00-.403-.364.65.65 0 00-.517.034h-.022z" fill="#008FD6"/></svg>
